!!!OTL: Ich bekomm einmal einen traurigen Brief (3-71), S. 201
!!!id: P1044
**kern
*clefG2
*k[f#]
*G:
{8d
8d
=1
4b
4a
4g
8b
8a
=2
8g
8f#
8e
8f#
2g}
=3
{4g
8a
8b
4cc
8cc
8cc
=4
8b
8dd
8b
8g
2a}
=5
{4a
8cc
8dd
4dd
8a
8cc
=6
4b
8a
8g
4f#
8g
8b
=7
2a}
=8
{4a
8b
8dd
=9
4dd
8a
8cc
16a
8.b
4a
=10
2g}
4r
==
*-
!!!minrhy: 16
!!!meters: 4/4 ]  ZZ[4
!!!cut: Ich bekomm einmal einen traurigen Brief (3-71), S. 201
!!!reg: Lothringen
!!!trd: PINCK, Louis: Verklingende Weisen, Bd3, Metz 1933
!!!rhy1: X_X_  X__X__X__X_X_  X_X_X_X_X___   (x2)
!!!rhy2: X__X_X_X__X_X_  X_X_X_X_X___
!!!key: P1044  16  G 4/4 ]  ZZ[4
!!!mod: HEPTATONIK IONISCH]  AMBITUS[8
!!!kad: 1221
!!!akz: 3111_1432_253-72_2521_
!!!fot: 'a__b__c__d__
!!!for: 'a__b__c__d__
!!!fok: '~a_^a_~__^d_
!! PHRAS[GEMISCHTTAKTIG]
!!!fkt: Untreue
!! LOTH VKL
!! PR[9] 2K[9] 2G[19] 3K[0] 3G[0] 4A[9] 4Ü[0] 5A[0] 6K[0] 6G[0]
!! 7K[0] 7G[0] 8A[0] MEHR[0] SI[38] ABS[32] SR[28] SP[9]
!! ST[8] 2k[16] 2g[28] 3k[3] 3g[3] 4d[0] 4ü[0] 5d[3] 6k[0] 6g[0]
!! 7k[0] 7g[0] 8d[0] mehr[0] si[53] dm[-15] sr[44] sp[9]
!! 1F[64] 2F[12] 3F[6] 4F[0] LF[0] 2P[9] 3P[0] 4P[0] TRI[0] DF[5] AB[33]
!! TF[0] U3K[0] U3[0] U4[0] U4Ü[0] U5[0] U6K[0] U6[0] U7K[0] U7[0]
!! N1[9] N2K[0] N2[15] N3K[15] N3[0] N4[18] N4Ü[0] N5[30] N6K[0] N6[6]
!!!n7k: 6] N7[0] O1[0] O2K[0] O2[0] O3K[0] O3[0] HÖ[0
